polaris-icons/icons/newicons/ArrowDownMinor.svg

<svg width="20" height="20" viewBox="0 0 20 20" fill="none" xmlns="http://www.w3.org/2000/svg">
<path fill-rule="evenodd" clip-rule="evenodd" d="M10 3C10.4142 3 10.75 3.33579 10.75 3.75V14.3591L13.4538 11.486C13.7377 11.1844 14.2124 11.17 14.514 11.4538C14.8156 11.7377 14.83 12.2124 14.5462 12.514L10.5462 16.7644C10.4044 16.915 10.2068 17.0004 10 17.0004C9.79319 17.0004 9.59556 16.915 9.45383 16.7644L5.45383 12.514C5.16995 12.2124 5.18436 11.7377 5.486 11.4538C5.78765 11.17 6.2623 11.1844 6.54617 11.486L9.25 14.3591V3.75C9.25 3.33579 9.58579 3 10 3Z" fill="black"/>
</svg>

<svg viewBox="0 0 20 20" fill="none" xmlns="http://www.w3.org/2000/svg"><path fill-rule="evenodd" clip-rule="evenodd" d="M10 3a.75.75 0 0 1 .75.75v10.61l2.704-2.874a.75.75 0 0 1 1.092 1.028l-4 4.25a.75.75 0 0 1-1.092 0l-4-4.25a.75.75 0 0 1 1.092-1.028l2.704 2.873v-10.609a.75.75 0 0 1 .75-.75Z" fill="#000"/></svg>
